assets/svg/icon_post_everyone.svg

<svg width="24" height="24" viewBox="0 0 24 24" fill="none" xmlns="http://www.w3.org/2000/svg">
<path d="M7.2 6.16842C7.8242 6.73684 9.11004 8.29053 9.25985 9.95789C9.39987 11.5164 10.4286 12.7828 12 12.8C12.6039 12.8066 13.2147 12.3703 13.2131 11.7664C13.2126 11.5796 13.1818 11.3887 13.1336 11.213C13.0665 10.9687 13.0605 10.6876 13.2 10.4C13.6879 9.39403 14.6475 9.12381 15.4079 8.57749C15.7451 8.33519 16.0528 8.07958 16.1884 7.87368C16.5629 7.30526 16.9375 6.16842 16.7502 5.6M20 12.8C19.7365 13.5448 19.55 15.5 16.5746 15.531C16.5746 15.531 13.9397 15.531 13.1492 17.0207C12.5168 18.2124 12.8857 19.5034 13.1492 20M20 12C20 16.4183 16.4183 20 12 20C7.58172 20 4 16.4183 4 12C4 7.58172 7.58172 4 12 4C16.4183 4 20 7.58172 20 12Z" stroke="#0166FF" stroke-width="1.2"/>
</svg>

<svg xmlns="http://www.w3.org/2000/svg" width="24" height="24" fill="none"><path stroke="#0166FF" stroke-width="1.2" d="M7.2 6.168c.624.569 1.91 2.123 2.06 3.79.14 1.558 1.169 2.825 2.74 2.842.604.007 1.215-.43 1.213-1.034 0-.186-.031-.377-.08-.553a1.13 1.13 0 0 1 .067-.813c.488-1.006 1.448-1.276 2.208-1.823.337-.242.645-.497.78-.703.375-.569.75-1.706.562-2.274M20 12.8c-.264.745-.45 2.7-3.425 2.731 0 0-2.635 0-3.426 1.49-.632 1.191-.263 2.482 0 2.979M20 12a8 8 0 1 1-16 0 8 8 0 0 1 16 0Z"/></svg>
